Newaita-dark/.LP/scalable/media-eject.svg

<?xml version="1.0" encoding="UTF-8"?>
<svg xmlns="http://www.w3.org/2000/svg" xmlns:xlink="http://www.w3.org/1999/xlink" width="512pt" height="512pt" viewBox="0 0 512 512" version="1.1">
<g id="surface1">
<path style=" stroke:none;fill-rule:nonzero;fill:rgb(25.882354%,25.882354%,25.882354%);fill-opacity:1;" d="M 21.167969 258.023438 C 21.167969 387.027344 125.023438 490.878906 254.023438 490.878906 C 383.027344 490.878906 486.878906 387.027344 486.878906 258.023438 C 486.878906 129.023438 383.027344 25.167969 254.023438 25.167969 C 125.023438 25.167969 21.167969 129.023438 21.167969 258.023438 Z M 63.507812 258.023438 C 63.507812 152.476562 148.476562 67.507812 254.023438 67.507812 C 359.570312 67.507812 444.542969 152.476562 444.542969 258.023438 C 444.542969 363.570312 359.570312 448.542969 254.023438 448.542969 C 148.476562 448.542969 63.507812 363.570312 63.507812 258.023438 Z M 63.507812 258.023438 "/>
<path style=" stroke:none;fill-rule:evenodd;fill:rgb(25.882354%,64.705884%,96.078432%);fill-opacity:1;" d="M 359.859375 279.191406 C 359.566406 290.671875 350.179688 299.824219 338.699219 299.824219 L 169.351562 299.824219 C 151.601562 299.820312 141.734375 279.292969 152.820312 265.433594 L 237.496094 159.589844 C 245.96875 149 262.078125 149 270.554688 159.589844 L 355.230469 265.433594 C 358.347656 269.332031 359.984375 274.203125 359.859375 279.191406 Z M 359.859375 279.191406 "/>
<path style=" stroke:none;fill-rule:nonzero;fill:rgb(25.882354%,64.705884%,96.078432%);fill-opacity:1;" d="M 359.867188 341.171875 L 359.867188 344.226562 C 359.867188 355.074219 350.390625 363.867188 338.699219 363.867188 L 169.347656 363.867188 C 157.65625 363.867188 148.179688 355.074219 148.179688 344.226562 L 148.179688 341.171875 C 148.179688 330.324219 157.65625 321.53125 169.347656 321.53125 L 338.699219 321.53125 C 350.390625 321.53125 359.867188 330.324219 359.867188 341.171875 Z M 359.867188 341.171875 "/>
</g>
</svg>

<svg xmlns="http://www.w3.org/2000/svg" width="512pt" height="512pt" viewBox="0 0 512 512"><path d="M21.168 258.023c0 129.004 103.855 232.856 232.855 232.856 129.004 0 232.856-103.852 232.856-232.856 0-129-103.852-232.855-232.856-232.855-129 0-232.855 103.855-232.855 232.855zm42.34 0c0-105.546 84.969-190.515 190.515-190.515 105.547 0 190.52 84.969 190.52 190.515 0 105.547-84.973 190.52-190.52 190.52-105.546 0-190.515-84.973-190.515-190.52zm0 0" fill="#424242"/><path d="M359.86 279.191c-.294 11.48-9.68 20.633-21.16 20.633H169.351c-17.75-.004-27.618-20.531-16.532-34.39l84.676-105.844c8.473-10.59 24.582-10.59 33.059 0l84.675 105.844a21.175 21.175 0 0 1 4.63 13.757zm0 0" fill-rule="evenodd" fill="#42a5f5"/><path d="M359.867 341.172v3.055c0 10.847-9.476 19.64-21.168 19.64H169.348c-11.692 0-21.168-8.793-21.168-19.64v-3.055c0-10.848 9.476-19.64 21.168-19.64h169.351c11.692 0 21.168 8.792 21.168 19.64zm0 0" fill="#42a5f5"/></svg>
